22x22/panel/update-none.svg

<svg xmlns="http://www.w3.org/2000/svg" width="22" height="22" version="1.1">
 <defs>
  <style id="current-color-scheme" type="text/css">
   .ColorScheme-Text { color:#d3dae3; } .ColorScheme-Highlight { color:#4285f4; }
  </style>
 </defs>
 <path style="opacity:0.3;fill:currentColor" class="ColorScheme-Text" d="m 11,3 c -4.4183,0 -8,3.5817 -8,8 0,4.418 3.5817,8 8,8 4.418,0 8,-3.582 8,-8 0,-4.4183 -3.582,-8 -8,-8 z m 0,2 c 1.495771,0 2.989091,0.5601607 4.148438,1.671875 -0.370703,0.1438242 -0.713602,0.3779669 -0.976563,0.75 L 13.710938,8.076172 C 12.142097,6.6218791 9.697474,6.6462762 8.171875,8.171875 7.3909653,8.952785 7.0040093,9.976418 7.0039062,11 h 0.296875 A 0.69923716,0.5746971 1.1588047e-6 0 1 7.90625,11.861328 l -0.6503906,0.925781 -0.6523438,0.925782 a 0.69923716,0.5746971 1.1588047e-6 0 1 -1.2089844,0 L 4.7441406,12.787109 4.09375,11.861328 A 0.69923716,0.5746971 1.1588047e-6 0 1 4.4921875,11.025391 0.69923716,0.5746971 1.1588047e-6 0 1 4.6972656,11 H 5.0019531 C 5.0020237,9.464515 5.5863637,7.9292613 6.7578125,6.7578125 7.9293912,5.5862339 9.464469,5 11,5 Z m 4.962891,3.001953 a 0.69923716,0.5746971 1.1588047e-6 0 1 0.642578,0.285156 l 0.65039,0.925782 0.650391,0.925781 A 0.69923716,0.5746971 1.1588047e-6 0 1 17.507812,10.974609 0.69923716,0.5746971 1.1588047e-6 0 1 17.302734,11 h -0.304687 c -7.1e-5,1.535485 -0.584412,3.070735 -1.755859,4.242188 C 14.070609,16.413764 12.535531,17 11,17 9.505091,17 8.0125771,16.440509 6.8535156,15.330078 c 0.363732,-0.140945 0.7082551,-0.373476 0.9746094,-0.75 v -0.002 l 0.4609375,-0.654297 c 1.5688395,1.454293 4.0134635,1.429896 5.5390625,-0.0957 C 14.609035,13.047215 14.995991,12.023583 14.996094,11 H 14.699219 A 0.69923716,0.5746971 1.1588047e-6 0 1 14.09375,10.138672 l 0.650391,-0.925781 0.652343,-0.925782 a 0.69923716,0.5746971 1.1588047e-6 0 1 0.566407,-0.285156 z"/>
</svg>

<svg xmlns="http://www.w3.org/2000/svg" width="22" height="22"><defs><style id="current-color-scheme" type="text/css"></style></defs><path style="opacity:.3;fill:currentColor;color:#d3dae3" d="M11 3a8 8 0 1 0 0 16 8 8 0 0 0 0-16zm0 2c1.496 0 2.99.56 4.148 1.672-.37.144-.713.378-.976.75l-.461.654a3.991 3.991 0 0 0-5.54.096A3.984 3.984 0 0 0 7.005 11H7.3a.7.575 0 0 1 .605.861l-.65.926-.652.926a.7.575 0 0 1-1.21 0l-.65-.926-.65-.926a.7.575 0 0 1 .398-.836.7.575 0 0 1 .205-.025h.305a5.98 5.98 0 0 1 1.756-4.242A5.98 5.98 0 0 1 11 5zm4.963 3.002a.7.575 0 0 1 .642.285l.65.926.651.926a.7.575 0 0 1-.398.836.7.575 0 0 1-.205.025h-.305a5.98 5.98 0 0 1-1.756 4.242A5.98 5.98 0 0 1 11 17a5.98 5.98 0 0 1-4.146-1.67c.363-.14.708-.373.974-.75v-.002l.461-.654a3.991 3.991 0 0 0 5.54-.096A3.984 3.984 0 0 0 14.995 11H14.7a.7.575 0 0 1-.605-.861l.65-.926.652-.926a.7.575 0 0 1 .567-.285z"/></svg>
